X:6054
T:Sinclairs Reel
O:england
R:Reel
M:C|
A:Westmorland
N:P14 3/3
K:G
B2|A/2A/2A cA dBcA| Bggd BGGB|\
A/2A/2A cA dBcA| Baae cAA2:|
|:g2|a/2g/2f/2e/ ca eaca|Bggd BGGg|\
a/2g/2f/2e/2 ca eaca|Baae cAA2:|


